public/static/images/icon-check.svg

<svg height="15" viewBox="0 0 15 15" width="15" xmlns="http://www.w3.org/2000/svg"><path d="m17.6552734 26.3798828c.3984375 0 .7119141-.1669922.9404297-.5009766l7.8310547-12.2695312c.0820313-.1289062.1420899-.2490234.1801758-.3603516.0380859-.1113281.0571289-.2167968.0571289-.3164062 0-.2636719-.0820313-.4775391-.2460937-.6416016-.1640626-.1640625-.3779297-.2460937-.6416016-.2460937-.1875 0-.3427734.0366211-.4658203.1098633-.1230469.0732421-.2460938.2006836-.3691407.3823242l-7.3125 11.6455078-3.7880859-4.8955078c-.2167969-.2929688-.4833984-.4394532-.7998047-.4394532-.2695312 0-.4907226.084961-.6635742.2548829-.1728516.1699218-.2592773.3867187-.2592773.6503906 0 .1113281.0219726.2255859.0659179.3427734s.1157227.234375.2153321.3515625l4.2978515 5.4316406c.2753906.3339844.5947266.5009766.9580078.5009766z" fill="#185037" transform="translate(-12 -12)"/></svg>

<?xml version="1.0" encoding="UTF-8"?>
<svg width="15px" height="15px" viewBox="0 0 15 15" version="1.1" xmlns="http://www.w3.org/2000/svg" xmlns:xlink="http://www.w3.org/1999/xlink">
    <title>􀆅</title>
    <g id="Page-1" stroke="none" stroke-width="1" fill="none" fill-rule="evenodd">
        <g id="iPhone-8" transform="translate(-323.000000, -362.000000)" fill="#185037" fill-rule="nonzero">
            <g id="Group-3" transform="translate(311.000000, 350.000000)">
                <path d="M17.6552734,26.3798828 C18.0537109,26.3798828 18.3671875,26.2128906 18.5957031,25.8789062 L26.4267578,13.609375 C26.5087891,13.4804688 26.5688477,13.3603516 26.6069336,13.2490234 C26.6450195,13.1376953 26.6640625,13.0322266 26.6640625,12.9326172 C26.6640625,12.6689453 26.5820312,12.4550781 26.4179688,12.2910156 C26.2539062,12.1269531 26.0400391,12.0449219 25.7763672,12.0449219 C25.5888672,12.0449219 25.4335938,12.081543 25.3105469,12.1547852 C25.1875,12.2280273 25.0644531,12.3554688 24.9414062,12.5371094 L17.6289062,24.1826172 L13.8408203,19.2871094 C13.6240234,18.9941406 13.3574219,18.8476562 13.0410156,18.8476562 C12.7714844,18.8476562 12.550293,18.9326172 12.3774414,19.1025391 C12.2045898,19.2724609 12.1181641,19.4892578 12.1181641,19.7529297 C12.1181641,19.8642578 12.1401367,19.9785156 12.184082,20.0957031 C12.2280273,20.2128906 12.2998047,20.3300781 12.3994141,20.4472656 L16.6972656,25.8789062 C16.9726562,26.2128906 17.2919922,26.3798828 17.6552734,26.3798828 Z" id="􀆅"></path>
            </g>
        </g>
    </g>
</svg>
